X:6131
T:Snake in the Luggage
O:england
M:4/4
L:1/8
Q:220
C:David Shapiro 1996
K:EMin
GFED E3F|GFED B,DFE|D2 AD BDAD|D2 FD EFDB,|
GFED E3F|GFED B,DFE|FddB dBAF|GAFD E4:|K:D |
BFFE F2 Bc|dBed cBAF|G2 DG CGDG|EFED DFAF|
BFFE F3 A|BcdB cBAF|GAFD EFGA|B2 dB cdAF:|


